X:5912
T:Gan Ainm
R:Jig
S:Frank Simons (Guitar)
H:
N:
D:
Z:Adrian Scahill
M:6/8
L:1/8
K:G
d2B AGA|BGG G3|dBA ABd|(3efg d edB|\
dBA AGA|BGF GBA|GED G2A|Bdd edB:||\
def gfg|agf g3|def g2a|bge edB|\
def gfg|agf g3|agf ged|e2 e efg:||
